src/icons/ifanr-cloud.svg

<svg xmlns="http://www.w3.org/2000/svg" viewBox="0 0 256 256">
  <path fill="#0288d1" d="M126.9,41.6c30.2,0,56.1,18.5,67.1,44.8c29.2,6.3,51.1,32.2,51.1,63.3c0,35.7-29,64.7-64.7,64.7h-61.4
	c-2.4,0-4.6,0-7,0c-2.1,0-4,0-6.1,0H60.7c-27.5,0-49.7-22.3-49.7-49.7c0-25.3,18.8-46.1,43.2-49.3l0-0.8
	C54.2,74.3,86.8,41.6,126.9,41.6z M129.5,90.6c-3.5,0-6.3,2.8-6.3,6.4v86.7c0,3.5,2.8,6.4,6.3,6.4c3.5,0,6.3-2.8,6.3-6.4V97
	C135.8,93.5,133,90.6,129.5,90.6z M88.5,116.3c-0.2,10.4-1.6,21-3.7,30.4c-0.9,3.9-1.8,7.4-2.8,10.1c-0.4,1.2-0.8,2.2-1.1,3
	c-0.1,0.3-0.3,0.6-0.4,0.7c-2.2,2.7-1.7,6.7,1,8.9c2.7,2.2,6.7,1.8,8.9-1c4.8-6,10.3-30.4,10.7-51.9c0.1-3.5-2.7-6.4-6.2-6.5
	S88.6,112.8,88.5,116.3z M163.8,110l-0.1,0c-3.5,0.1-6.3,3-6.2,6.5c0.4,21.5,5.9,45.9,10.7,51.9c2.2,2.7,6.2,3.2,8.9,1
	c2.7-2.2,3.1-6.2,1-8.9c-0.1-0.2-0.2-0.4-0.4-0.7c-0.3-0.7-0.7-1.8-1.1-3c-0.9-2.7-1.9-6.2-2.8-10.1c-2.1-9.4-3.5-20-3.7-30.4
	c-0.1-3.5-3-6.3-6.5-6.2L163.8,110z" />
</svg>

<svg viewBox="0 0 256 256" xmlns="http://www.w3.org/2000/svg">
  <path
    d="M126.9 41.6C157.1 41.6 183 60.1 194 86.4C223.2 92.7 245.1 118.6 245.1 149.7C245.1 185.4 216.1 214.4 180.4 214.4H119C116.6 214.4 114.4 214.4 112 214.4C109.9 214.4 108 214.4 105.9 214.4H60.7C33.2 214.4 11 192.1 11 164.7C11 139.4 29.8 118.6 54.2 115.4V114.6C54.2 74.3 86.8 41.6 126.9 41.6ZM129.5 90.6C126 90.6 123.2 93.4 123.2 97V183.7C123.2 187.2 126 190.1 129.5 190.1C133 190.1 135.8 187.3 135.8 183.7V97C135.8 93.5 133 90.6 129.5 90.6ZM88.5 116.3C88.3 126.7 86.9 137.3 84.8 146.7C83.9 150.6 83 154.1 82 156.8C81.6 158 81.2 159 80.9 159.8C80.8 160.1 80.6 160.4 80.5 160.5C78.3 163.2 78.8 167.2 81.5 169.4C84.2 171.6 88.2 171.2 90.4 168.4C95.2 162.4 100.7 138 101.1 116.5C101.2 113 98.4 110.1 94.9 110C91.4 109.9 88.6 112.8 88.5 116.3ZM163.8 110H163.7C160.2 110.1 157.4 113 157.5 116.5C157.9 138 163.4 162.4 168.2 168.4C170.4 171.1 174.4 171.6 177.1 169.4C179.8 167.2 180.2 163.2 178.1 160.5C178 160.3 177.9 160.1 177.7 159.8C177.4 159.1 177 158 176.6 156.8C175.7 154.1 174.7 150.6 173.8 146.7C171.7 137.3 170.3 126.7 170.1 116.3C170 112.8 167.1 110 163.6 110.1L163.8 110Z"
    fill="#0288D1"
  />
</svg>
